X: 5802
T: Caledon Line, The
R: jig
M: 6/8
K: Gmajor
|:E|:DGG GFD|DCA, DCA,|DGG GFD|DCA, G,2:|
|:c|BGG GAG|FDD DGA|BGG GAB|cAF GGA|
BAG AGF|GAG FDC|B,G,G, A,B,C|A,G,F, G,2:|

